X:1
T:Let Something Good Be Said
T:Let Something Good Be Said
T:French Earl Oliver, 1908
T:James Whitcomb Riley (1849-1916) , alt
T:Public Domain Courtesy of the Cyber Hymnal™
T:Public Domain Courtesy of the Cyber Hymnal™
C:French Earl Oliver, 1908
Z:Public Domain
Z:Courtesy of the Cyber Hymnal™
%%score ( 1 2 ) ( 3 4 )
L:1/8
Q:1/4=105
M:4/4
K:Ab
V:1 treble 
V:2 treble 
V:3 bass 
V:4 bass 
V:1
 [CE]2 | [CE]3 [CE] [=B,=D][CE][DF][F_c] | [Ec]6 [_GA]2 | [FA]3 [FA] [=EG][FA][FB][_FA] | %4
w: 1.~When|o’er the fame of friend or|foe, The|sha- dow of dis- grace shall|
w: 2.~For-|get not grace, no sin- ner|yet May|fall so low but Christ can|
w: 3.~No|gen- erous heart may turn a-|side To|deeds of love— if they in|
w: 4.~If|cru- el words em- bit- ter|thee, Turn|to the cross on Cal- va-|
 E3 [CF] [CE]2 [CE]2 | [DG]3 [EA] [E=A][FB][Fc][EB] | (A3 B c2) [_Gc]2 | [GB]3 [=DF] [DG]2 [DA]2 | %8
w: fall; in- stead Of|words of flame, or fa- tal|blow— * * Let|some- thing good be|
w: lift his head, While|cheeks of shame with tears are|wet; * * Let|some- thing good be|
w: sin be dead, But|may a- wak- en glor- i-|fied, * * If|some- thing good be|
w: ry, where said The|Sav- ior: “O for- give,” and|see * * That|some- thing good be|
 [EB]6 ||"^Refrain" E2 | [Ec]3 [Ec] [Ec][Ce][Dd][E=A] | [Fc]3 [FB] [DF]2 [DF]2 | %12
w: said.||||
w: said.|And|so I charge ye by the|thorn- y crown, And|
w: said.||||
w: said.||||
 [DB]3 [DB] [C=A][DB][Ec][DB] | C3 [CE] [EA]2 [CE]2 | [Ec]3 [Ec] [Ec][_Ge][Gf][Ge] | %15
w: |||
w: by the cross on which the|Sav- ior bled, And|by your own soul’s hope of|
w: |||
w: |||
 [Fe]3 [Fd] [FA]2 [_FB]2 | [Ec] [Ae]3 [Gc]3 [EB] | [EA]6 |] %18
w: |||
w: fair re- nown: Let|some- thing good be|said.|
w: |||
w: |||
V:2
 x2 | x8 | x8 | x8 | E3 x5 | x8 | E6 x2 | x8 | x6 || E2 | x8 | x8 | x8 | C3 x5 | x8 | x8 | x8 | %17
 x6 |] %18
V:3
 [A,,A,]2 | [A,,A,]3 [A,,A,] [A,,F,][A,,A,][D,A,][D,A,] | [A,,A,]6 [A,,C]2 | %3
 [D,D]3 [D,D] [D,B,][D,A,][D,D][D,D] | [A,C]3 A, A,2 A,2 | [E,B,]3 [E,C] [E,C][E,D][E,G,][D,G,] | %6
 ([C,A,]3 [E,G,] A,2) [=A,E]2 | [B,E]3 [A,B,] [G,B,]2 [F,B,]2 | [E,G,]6 || [E,G,]2 | %10
 [A,,A,]3 [A,,A,] [A,,A,][=A,,_G,][B,,F,][C,F,] | [D,F,]3 [D,A,] [B,,B,]2 (B,A,) | %12
 [E,G,]3 [E,G,] [E,^F,][E,G,][E,G,][E,G,] | [A,,E,]3 [A,,A,] [A,,C]2 [A,,A,]2 | %14
 [A,,A,]3 [A,,A,] [A,,A,][C,A,][C,A,][C,A,] | [D,A,]3 [D,A,] [D,D]2 [D,A,]2 | %16
 [E,A,] [E,C]3 [E,E]3 [E,D] | [A,,C]6 |] %18
V:4
 x2 | x8 | x8 | x8 | x3 A, A,2 A,2 | x8 | x4 =A,2 x2 | x8 | x6 || x2 | x8 | x6 D,2 | x8 | x8 | x8 | %15
 x8 | x8 | x6 |] %18

